src/assets/img/smiles/2.svg

<svg width="65" height="65" viewBox="0 0 65 65" fill="none" xmlns="http://www.w3.org/2000/svg">
<path d="M60.294 32.644C60.294 49.015 47.02 62.287 30.646 62.287C14.273 62.287 1 49.015 1 32.644C1 16.272 14.273 3 30.646 3C47.02 3 60.294 16.272 60.294 32.644Z" fill="#EDC951"/>
<path d="M45.7781 43.768H17.7781C16.9501 43.768 16.2781 43.096 16.2781 42.268C16.2781 41.439 16.9501 40.768 17.7781 40.768H45.7781C46.6061 40.768 47.2781 41.439 47.2781 42.268C47.2781 43.096 46.6061 43.768 45.7781 43.768Z" fill="black"/>
<path d="M44.998 22.984C44.998 24.965 43.3909 26.57 41.4109 26.57C39.4309 26.57 37.825 24.965 37.825 22.984C37.825 21.004 39.4309 19.399 41.4109 19.399C43.3909 19.399 44.998 21.004 44.998 22.984Z" fill="black"/>
<path d="M24.3761 22.984C24.3761 24.965 22.7701 26.57 20.7901 26.57C18.8091 26.57 17.2041 24.965 17.2041 22.984C17.2041 21.004 18.8091 19.399 20.7901 19.399C22.7701 19.399 24.3761 21.004 24.3761 22.984Z" fill="black"/>
<path d="M31.147 62.29C13.973 62.29 0 48.319 0 31.147C0 13.975 13.973 0.0039978 31.147 0.0039978C48.321 0.0039978 62.294 13.975 62.294 31.147C62.294 48.319 48.321 62.29 31.147 62.29ZM31.147 3.004C15.627 3.004 3 15.628 3 31.147C3 46.666 15.627 59.291 31.147 59.291C46.668 59.291 59.294 46.666 59.294 31.147C59.294 15.628 46.668 3.004 31.147 3.004Z" fill="black"/>
</svg>

<?xml version="1.0" encoding="iso-8859-1"?>
<!-- Generator: Adobe Illustrator 19.1.0, SVG Export Plug-In . SVG Version: 6.00 Build 0)  -->
<svg version="1.1" id="Capa_1" xmlns="http://www.w3.org/2000/svg" xmlns:xlink="http://www.w3.org/1999/xlink" x="0px" y="0px"
	 viewBox="0 0 64.5 64.5" style="enable-background:new 0 0 64.5 64.5;" xml:space="preserve">
<g>
	<g id="group-9svg">
		<path id="path-1_49_" style="fill:#EDC951;" d="M64.5,34.853c0,16.371-13.274,29.643-29.648,29.643
			c-16.373,0-29.646-13.272-29.646-29.643c0-16.372,13.273-29.644,29.646-29.644C51.226,5.209,64.5,18.481,64.5,34.853z"/>
		<path id="path-2_49_" d="M45.778,43.768h-28c-0.828,0-1.5-0.672-1.5-1.5c0-0.829,0.672-1.5,1.5-1.5h28c0.828,0,1.5,0.671,1.5,1.5
			C47.278,43.096,46.606,43.768,45.778,43.768z"/>
		<path id="path-3_49_" d="M44.998,22.984c0,1.981-1.607,3.586-3.587,3.586c-1.98,0-3.586-1.605-3.586-3.586
			c0-1.98,1.606-3.585,3.586-3.585C43.391,19.399,44.998,21.004,44.998,22.984z"/>
		<path id="path-4_49_" d="M24.376,22.984c0,1.981-1.606,3.586-3.586,3.586c-1.981,0-3.586-1.605-3.586-3.586
			c0-1.98,1.605-3.585,3.586-3.585C22.77,19.399,24.376,21.004,24.376,22.984z"/>
		<path id="path-5_49_" d="M31.147,62.29C13.973,62.29,0,48.319,0,31.147S13.973,0.004,31.147,0.004s31.147,13.971,31.147,31.143
			S48.321,62.29,31.147,62.29z M31.147,3.004C15.627,3.004,3,15.628,3,31.147s12.627,28.144,28.147,28.144
			c15.521,0,28.147-12.625,28.147-28.144S46.668,3.004,31.147,3.004z"/>
	</g>
</g>
<g>
</g>
<g>
</g>
<g>
</g>
<g>
</g>
<g>
</g>
<g>
</g>
<g>
</g>
<g>
</g>
<g>
</g>
<g>
</g>
<g>
</g>
<g>
</g>
<g>
</g>
<g>
</g>
<g>
</g>
</svg>
